images/bag-pink.svg

<?xml version="1.0" encoding="UTF-8"?>
<svg xmlns="http://www.w3.org/2000/svg" width="16" height="16.56" xmlns:xlink="http://www.w3.org/1999/xlink" viewBox="0 0 16 16.56">
  <defs>
    <style>
      .cls-1 {
        fill: url(#_增漸層色票);
        fill-rule: evenodd;
      }
    </style>
    <linearGradient id="_增漸層色票" data-name="新增漸層色票" x1="8" y1="16.56" x2="8" y2="0" gradientTransform="matrix(1, 0, 0, 1, 0, 0)" gradientUnits="userSpaceOnUse">
      <stop offset="0" stop-color="#b0124f"/>
      <stop offset="1" stop-color="#e83d80"/>
    </linearGradient>
  </defs>
  <g id="Layer_1" data-name="Layer 1"/>
  <g id="Layer_2" data-name="Layer 2">
    <g id="_層_1" data-name="圖層 1">
      <path class="cls-1" d="M14.75,1.76c-.06-1.18-.78-1.76-1.5-1.76H2.75c-.79,0-1.44,.59-1.57,1.76C1.11,2.94,.07,14.34,0,15.26c-.07,.85,.65,1.31,1.63,1.31H14.3c1.05,0,1.76-.46,1.7-1.31-.07-.92-1.11-12.32-1.24-13.49h0ZM4.71,3.32c0,.46-.33,.79-.72,.79-.46,0-.79-.33-.79-.79,0-.38,.33-.71,.79-.71,.39,0,.72,.33,.72,.71h0Zm6.46,0c0,.46,.33,.79,.79,.79,.39,0,.72-.33,.72-.79,0-.38-.33-.71-.72-.71-.46,0-.79,.33-.79,.71h0Zm-3.2,8.02h-.13c-1.05,0-1.96-.39-2.61-1.1-1.37-1.5-1.7-3.98-1.76-5.48-.59-.2-1.05-.78-1.05-1.44,0-.84,.72-1.5,1.57-1.5,.78,0,1.5,.66,1.5,1.5,0,.66-.46,1.24-1.05,1.44,.07,1.37,.33,3.59,1.5,4.76,.52,.58,1.18,.91,2.02,.91,.79,0,1.44-.33,1.96-.91,1.18-1.18,1.44-3.39,1.5-4.76-.59-.2-.98-.78-.98-1.44,0-.84,.66-1.5,1.5-1.5s1.5,.66,1.5,1.5c0,.66-.45,1.24-1.05,1.44-.06,1.5-.32,3.98-1.76,5.48-.66,.71-1.57,1.1-2.61,1.1h-.07Z"/>
    </g>
  </g>
</svg>

<?xml version="1.0" encoding="utf-8"?>
<!-- Generator: Adobe Illustrator 26.2.1, SVG Export Plug-In . SVG Version: 6.00 Build 0)  -->
<svg version="1.1" id="Layer_1" xmlns="http://www.w3.org/2000/svg" xmlns:xlink="http://www.w3.org/1999/xlink" x="0px" y="0px"
	 viewBox="0 0 16 16.6" style="enable-background:new 0 0 16 16.6;" xml:space="preserve">
<style type="text/css">
	.st0{fill-rule:evenodd;clip-rule:evenodd;fill:url(#SVGID_1_);}
</style>
<g id="Layer_1_00000102542906516106411400000009244999642413313935_">
</g>
<g id="Layer_2_00000087412498335420808050000009932555673643739813_">
	<g id="_層_1">
		
			<linearGradient id="SVGID_1_" gradientUnits="userSpaceOnUse" x1="7.9994" y1="1.43" x2="7.9994" y2="18" gradientTransform="matrix(1 0 0 -1 0 18)">
			<stop  offset="4.726487e-04" style="stop-color:#FF9800"/>
			<stop  offset="1" style="stop-color:#FFB033"/>
		</linearGradient>
		<path class="st0" d="M14.8,1.8C14.7,0.6,14,0,13.2,0H2.8C2,0,1.3,0.6,1.2,1.8C1.1,2.9,0.1,14.3,0,15.3c-0.1,0.9,0.6,1.3,1.6,1.3
			h12.7c1.1,0,1.8-0.5,1.7-1.3C15.9,14.3,14.9,2.9,14.8,1.8L14.8,1.8L14.8,1.8z M4.7,3.3c0,0.5-0.3,0.8-0.7,0.8
			c-0.5,0-0.8-0.3-0.8-0.8c0-0.4,0.3-0.7,0.8-0.7C4.4,2.6,4.7,2.9,4.7,3.3C4.7,3.3,4.7,3.3,4.7,3.3z M11.2,3.3
			c0,0.5,0.3,0.8,0.8,0.8c0.4,0,0.7-0.3,0.7-0.8c0-0.4-0.3-0.7-0.7-0.7C11.5,2.6,11.2,2.9,11.2,3.3C11.2,3.3,11.2,3.3,11.2,3.3z
			 M8,11.3H7.8c-1.1,0-2-0.4-2.6-1.1c-1.4-1.5-1.7-4-1.8-5.5c-0.6-0.2-1-0.8-1-1.4c0-0.8,0.7-1.5,1.6-1.5c0.8,0,1.5,0.7,1.5,1.5
			C5.5,4,5,4.6,4.4,4.8c0.1,1.4,0.3,3.6,1.5,4.8c0.5,0.6,1.2,0.9,2,0.9c0.8,0,1.4-0.3,2-0.9c1.2-1.2,1.4-3.4,1.5-4.8
			c-0.6-0.2-1-0.8-1-1.4c0-0.8,0.7-1.5,1.5-1.5s1.5,0.7,1.5,1.5c0,0.7-0.4,1.2-1.1,1.4c-0.1,1.5-0.3,4-1.8,5.5
			C10,10.9,9.1,11.3,8,11.3L8,11.3L8,11.3z"/>
	</g>
</g>
</svg>
